twotone/svg/local_phone.svg

<svg xmlns="http://www.w3.org/2000/svg" width="24" height="24"><path fill="none" d="M0 0h24v24H0V0z"/><g fill="currentColor"><path opacity=".3" d="M19 17.47c-.88-.07-1.75-.22-2.6-.45l-1.19 1.19c1.2.41 2.48.67 3.8.75v-1.49zM6.99 7.59c-.24-.83-.39-1.7-.45-2.59h-1.5c.09 1.32.35 2.59.75 3.8l1.2-1.21z"/><path d="M3 4c0 9.39 7.61 17 17 17 .55 0 1-.45 1-1v-3.49c0-.55-.45-1-1-1-1.24 0-2.45-.2-3.57-.57a.84.84 0 0 0-.31-.05c-.26 0-.51.1-.71.29l-2.2 2.2a15.149 15.149 0 0 1-6.59-6.59l2.2-2.2c.28-.28.36-.67.25-1.02A11.36 11.36 0 0 1 8.5 4c0-.55-.45-1-1-1H4c-.55 0-1 .45-1 1zm13.4 13.02c.85.24 1.72.39 2.6.45v1.49c-1.32-.09-2.59-.35-3.8-.75l1.2-1.19zM6.54 5c.06.89.21 1.76.45 2.59l-1.2 1.2c-.41-1.2-.67-2.47-.76-3.79h1.51z"/></g></svg>

<?xml version="1.0" encoding="utf-8"?>
<!-- Generator: Adobe Illustrator 19.1.0, SVG Export Plug-In . SVG Version: 6.00 Build 0)  -->
<svg version="1.1" xmlns="http://www.w3.org/2000/svg" xmlns:xlink="http://www.w3.org/1999/xlink" x="0px" y="0px" width="24px"
	 height="24px" viewBox="0 0 24 24" enable-background="new 0 0 24 24" xml:space="preserve">
<g id="Bounding_Boxes">
	<path fill="none" d="M0,0h24v24H0V0z"/>
</g>
<g id="Duotone" fill="currentColor">
	<g id="ui_x5F_spec_x5F_header_copy_2">
	</g>
	<g>
		<path opacity="0.3" d="M19,17.47c-0.88-0.07-1.75-0.22-2.6-0.45l-1.19,1.19c1.2,0.41,2.48,0.67,3.8,0.75V17.47z"/>
		<path opacity="0.3" d="M6.99,7.59C6.75,6.76,6.6,5.89,6.54,5h-1.5c0.09,1.32,0.35,2.59,0.75,3.8L6.99,7.59z"/>
		<path d="M3,4c0,9.39,7.61,17,17,17c0.55,0,1-0.45,1-1v-3.49c0-0.55-0.45-1-1-1c-1.24,0-2.45-0.2-3.57-0.57
			c-0.1-0.04-0.21-0.05-0.31-0.05c-0.26,0-0.51,0.1-0.71,0.29l-2.2,2.2c-2.83-1.45-5.15-3.76-6.59-6.59l2.2-2.2
			C9.1,8.31,9.18,7.92,9.07,7.57C8.7,6.45,8.5,5.25,8.5,4c0-0.55-0.45-1-1-1H4C3.45,3,3,3.45,3,4z M16.4,17.02
			c0.85,0.24,1.72,0.39,2.6,0.45v1.49c-1.32-0.09-2.59-0.35-3.8-0.75L16.4,17.02z M6.54,5C6.6,5.89,6.75,6.76,6.99,7.59l-1.2,1.2
			C5.38,7.59,5.12,6.32,5.03,5H6.54z"/>
	</g>
</g>
</svg>
